X: 1
T: O Maria
O: trad Italy
R: waltz
Z: John Chambers <jc@trillian.mit.edu>
M: 3/4
L: 1/4
K: D
[| [dF] [eG] \
|| "D"[d3F3]- | [dF] [BG] [cA] | [F3A3]- | [FA] [FA] [FA] \
| [BF] [BF] [BF] | [cF] [cF] [AF] | "Em"[B3G3]- | [B3G3] |
| "A7"[c3G3] | [d2G2] [eG] | (3[c/A][d/B][c/A] [B2G2]- | [BG] [BG] [BG] \
| [cA] [cA] [cA] | [cA] [dB] [ec] | "D"(3[B/G][c/A][B/G] [A2F2]- | [AF] [dF] [eG] |
| "D"[d3F3]- | [dF] [BG] [cA] | [F3A3]- | [FA] [dF] [eG] \
| "B7"[fA] [fA] [fA] | [fA] [gB] [a=c] | "Em"(3[f/A][g/B][f/A] [e2G2]- | [eG] G/B/e/f/ |
| "G"[g3B3] | "Gm"[e2_B2G2] [fBG] | "D"[d3F3A3]- | [dFA] [BG] [cA] | "A7"[A3G3]- | [AG] [ecG] [fcG] | "D"[d3F3A3]- | [dFA] |]
